X:1
T:Jean-Baptiste Duvernoy c. 1802 – c. 1880 
T:Etude 10, Op 176
%%score { 1 | 2 }
L:1/8
Q:1/4=88
M:4/4
K:D
V:1 treble nm="Piano" snm="Pno."
V:2 bass 
V:1
!mf!"^Andantino" (f2 d2 !>!a4) | (g2 e2 !>!a4) | (f4 gfed | c2 d2 !>!e4) |!p! (f2 d2 !>!a4) | %5
 (g2 e2 !>!a4) | (fagf egfe |!>(! d2 f2 d2)!p! z2!>)! |!p! (ABcd efge) |!<(! (defg abc'd')!<)! | %10
!mf!!8va(!!<(! (abc'd' e'f'g'e')!<)! |!f! (d'e'f'g' .a')!8va)!!ff! z z2 |!p!!<(! (ABcd efge)!<)! | %13
!mf!!<(! (defg abc'd')!<)! |!f!!<(! (ef^ga bc'd'b!<)! |!ff! a) z!p!!<(! (^GA Bcde!<)! | %16
!mf! f2 d2 !>!a4) | (g2 e2 !>!a4) | (f4 gfed | c2 d2 !>!e4) |!p! (f2 d2 !>!a4) | (g2 e2 !>!a4) | %22
 (fagf egfe |!>(! d2 f2 d2)!p! z2!>)! |] %24
V:2
!p! (D,A,F,A,) (D,A,F,A,) | (D,A,G,A,) (D,A,G,A,) | (D,A,F,A,) (D,A,F,A,) | (D,A,G,A,) (D,A,G,A,) | %4
 (D,A,F,A,) (D,A,F,A,) | (D,A,G,A,) (D,A,G,A,) | (D,2 A,2 G,2 A,2 | [D,F,]2 A,2 [D,F,]2) z2 | %8
 (A,,2 G,2 E,2 G,2) | (A,,2 F,2 D,2 F,2) | (A,,2 G,2 E,2 G,2) | (A,,2 F,2 D,2 F,2) | %12
 (A,,2 G,2 E,2 G,2) | (A,,2 F,2 D,2 F,2) | (E,2 D2 B,2 D2) | [A,C]2 z2 z4 | %16
!p! (D,A,F,A,) (D,A,F,A,) | (D,A,G,A,) (D,A,G,A,) | (D,A,F,A,) (D,A,F,A,) | (D,A,G,A,) (D,A,G,A,) | %20
 (D,A,F,A,) (D,A,F,A,) | (D,A,G,A,) (D,A,G,A,) | (D,2 A,2 G,2 A,2 | [D,F,]2 A,2 [D,F,]2) z2 |] %24

